!!!OTL: Die Rache.
!!!OTL-incipit: DES ABENDS IN DEM MONDENSCHEIN
!!!ARE: Europa, Mitteleuropa, Deutschland, Niederrhein
!!!SCT: Z1108
!!!TXL: @@DE
!!!YEM: Copyright 1995, estate of Helmut Schaffrath.
**kern	**text
*ICvox	*
*M6/8	*
*k[b-]	*
*d:	*
!LO:TX:a:t=Vom Niederrhein.	!
{8d	Des
=1	=1
4d	A-
8a	-bends
8aL	in
8bJ	.
8cc	dem
=2	=2
4b/	Mon-
8a	-den-
4g}	-ſchein
{8a	ſchön
=3	=3
4a	Mäd-
8a	-chen
4b	im
8cc#	Brunn-
=4	=4
4dd	-garten
8dd	al-
4a}	-lein;
{8e	be-
=5	=5
4a	-geg-
8a	-net
4b	ihr
8cc#	ein
=6	=6
4.dd	Held,
4ee}	hei!
{8dd	er
=7	=7
4cc#	grüßt
8a	das
8g#L	Mäd-
8aJ	.
8b/	-chen
=8	=8
4.a;	ſchnell.
4r}	.
{8a	Er
=9	=9
4dd	grüßt
8dd	ſie
8a	ü-
8b	-ber
8cc#	die
=10	=10
4.dd	Ma-
4a}	-ßen,
{8a	ein'
=11	=11
4b-X/	Nacht
8a	bei
4g	ihr
16fL	ʒu
16gJ	.
=12	=12
4.a	ſchla-
4e}	-fen,
{16fL	ein'
16eJ	.
=13	=13
4d	Nacht
8d	bei
8eL	ihr
8fJ	.
8g	ʒu
=14	=14
4.a	ſeyn,
4b-/}	hei!
{8a	du
=15	=15
8g	wack'res
8g	.
8e	Braun-
4f	-mäg-
8e	-de-
=16	=16
4d	-lein!
8r	.
4r}	.
==	==
!!!AGN: Romanze, Ballade
!!!ONB: ESAC (Essen Associative Code) Database: ZUCCAL
!!!AMT: compound duple
!!!AIN: vox
!!!EED: Helmut Schaffrath
!!!EEV: 1.0
!!!GTL: II. Gau- Leuschen.
!!!URL-scan: https://www.digitale-sammlungen.de/de/view/bsb11160573?page=231
!!!ENC: Anna Maria Matuszewska
!!!EEV: 2025/02/04
*-	*-
